icons/rancher.svg

<?xml version="1.0" encoding="UTF-8"?>
<svg width="256px" height="121px" viewBox="0 0 256 121" version="1.1" xmlns="http://www.w3.org/2000/svg" xmlns:xlink="http://www.w3.org/1999/xlink" preserveAspectRatio="xMidYMid">
    <g>
        <path d="M158.083457,0 C159.747307,0 161.15518,4.47959583 161.15518,9.85511083 L161.15518,9.85511083 L161.15518,12.4148799 C161.411157,12.2868914 161.667134,12.2868914 162.051099,12.2868914 L162.051099,12.2868914 L216.57418,12.2868914 C221.949695,12.2868914 226.429291,16.7664873 226.429291,22.2699907 L226.429291,22.2699907 L226.429291,73.4653717 C226.429291,78.8408867 221.949695,83.3204825 216.57418,83.3204825 L216.57418,83.3204825 L190.08057,83.3204825 C184.705055,83.3204825 180.22546,78.8408867 180.22546,73.4653717 L180.22546,73.4653717 L180.22546,53.3711846 C177.793679,55.163023 176.257818,57.9787689 176.257818,61.1784802 L176.257818,61.1784802 L176.257818,77.9449675 C176.257818,83.3204825 180.737413,87.8000783 186.112928,87.8000783 L186.112928,87.8000783 L203.391369,87.8000783 L203.391369,114.293688 C203.391369,117.621388 200.703612,120.309145 197.375912,120.309145 L197.375912,120.309145 L164.866845,120.309145 C161.539145,120.309145 158.851388,117.621388 158.851388,114.293688 L158.851388,114.293688 L158.851388,89.975882 C158.851388,86.6481823 156.16363,83.9604248 152.835931,83.9604248 L152.835931,83.9604248 L71.8192404,83.9604248 C68.4915406,83.9604248 65.8037831,86.6481823 65.8037831,89.975882 L65.8037831,89.975882 L65.8037831,114.293688 C65.8037831,117.621388 63.1160256,120.309145 59.7883258,120.309145 L59.7883258,120.309145 L27.2792589,120.309145 C23.9515592,120.309145 21.2638017,117.621388 21.2638017,114.293688 L21.2638017,114.293688 L21.2638017,44.1560161 L6.67311809,55.6749768 C6.03317583,56.1869306 5.13725666,56.0589421 4.62530285,55.4189999 L4.62530285,55.4189999 L0.40168392,50.4274502 C-0.110269889,49.9154964 -0.110269889,49.1475657 0.273695468,48.6356119 L0.273695468,48.6356119 L21.7757555,15.7425796 C22.7996631,13.566776 24.8474783,12.158903 27.2792589,12.158903 L27.2792589,12.158903 L141.444958,12.158903 C145.156624,12.158903 147.97237,15.4866027 147.332427,19.1982679 L147.332427,19.1982679 L145.028635,33.1490092 C144.388693,36.8606743 147.204439,40.1883741 150.916104,40.1883741 L150.916104,40.1883741 L173.954025,40.1883741 C176.89776,40.1883741 179.32954,38.1405588 179.841494,35.3248129 C178.56161,35.8367667 176.89776,36.0927436 175.23391,36.0927436 L175.23391,36.0927436 L158.851388,36.0927436 C153.475873,36.0927436 149.764208,31.7411362 150.660127,26.3656212 L150.660127,26.3656212 L153.475873,9.72712238 C154.371792,4.35160738 156.419607,0 158.083457,0 Z M248.443305,3.55271368e-15 C250.107155,3.55271368e-15 252.15497,4.35160738 253.050889,9.72712238 L253.050889,9.72712238 L255.866635,26.3656212 C256.762554,31.7411362 253.050889,36.0927436 247.547385,36.0927436 L247.547385,36.0927436 L230.268944,36.0927436 L230.268944,24.061829 L230.268944,24.061829 L235.516471,24.061829 C240.891986,24.061829 245.371582,19.5822332 245.371582,14.2067182 L245.371582,14.2067182 L245.371582,9.85511083 C245.371582,4.47959583 246.779455,3.55271368e-15 248.443305,3.55271368e-15 Z" fill="#0075A8"></path>
    </g>
</svg>

<svg xmlns="http://www.w3.org/2000/svg" viewBox="0 0 256 120.309">
  <path fill="#0075a8" d="M158.083 0c1.664 0 3.072 4.48 3.072 9.855v2.56c.256-.128.512-.128.896-.128h54.523c5.376 0 9.855 4.48 9.855 9.983v51.195c0 5.376-4.48 9.855-9.855 9.855h-26.493c-5.376 0-9.856-4.48-9.856-9.855V53.371c-2.431 1.792-3.967 4.608-3.967 7.807v16.767c0 5.375 4.48 9.855 9.855 9.855h17.278v26.494a6.008 6.008 0 0 1-6.015 6.015h-32.51a6.008 6.008 0 0 1-6.015-6.015V89.976a6.008 6.008 0 0 0-6.015-6.016H71.819a6.008 6.008 0 0 0-6.015 6.016v24.318a6.008 6.008 0 0 1-6.016 6.015H27.28a6.008 6.008 0 0 1-6.015-6.015V44.156L6.674 55.675c-.64.512-1.537.384-2.049-.256L.402 50.427a1.37 1.37 0 0 1-.128-1.791l21.502-32.893c1.024-2.176 3.071-3.584 5.503-3.584h114.166c3.712 0 6.527 3.328 5.887 7.04l-2.303 13.95c-.64 3.712 2.175 7.04 5.887 7.04h23.038c2.944 0 5.376-2.048 5.887-4.864-1.28.512-2.943.768-4.607.768H158.85c-5.375 0-9.087-4.352-8.19-9.727l2.815-16.639C154.372 4.352 156.42 0 158.083 0zm90.36 0c1.664 0 3.712 4.352 4.608 9.727l2.816 16.639c.896 5.375-2.816 9.727-8.32 9.727H230.27V24.062h5.247c5.376 0 9.856-4.48 9.856-9.855V9.855c0-5.375 1.407-9.855 3.071-9.855z"/>
</svg>
